src/assets/controller.svg

<?xml version="1.0" encoding="UTF-8" standalone="no"?>
<!-- Uploaded to: SVG Repo, www.svgrepo.com, Generator: SVG Repo Mixer Tools -->

<svg
   width="800"
   height="800"
   viewBox="0 0 24 24"
   fill="none"
   version="1.1"
   id="svg6"
   xmlns="http://www.w3.org/2000/svg"
   xmlns:svg="http://www.w3.org/2000/svg">
  <defs
     id="defs6" />
  <path
     d="m 7.99999,8.5 c 0,-0.55228 -0.44772,-1 -1,-1 -0.55229,0 -1,0.44772 -1,1 V 9 h -0.5 c -0.55229,0 -1,0.44771 -1,1 0,0.5523 0.44771,1 1,1 h 0.5 v 0.5 c 0,0.5523 0.44771,1 1,1 0.55228,0 1,-0.4477 1,-1 V 11 h 0.5 c 0.55228,0 1,-0.4477 1,-1 0,-0.55229 -0.44772,-1 -1,-1 h -0.5 z"
     fill="#0F1729"
     id="path1"
     style="fill:#ffffff" />
  <path
     d="m 18,8 c 0,0.55229 -0.4477,1 -1,1 -0.5523,0 -1,-0.44771 -1,-1 0,-0.55228 0.4477,-1 1,-1 0.5523,0 1,0.44772 1,1 z"
     fill="#0F1729"
     id="path2"
     style="fill:#ffffff" />
  <path
     d="m 17,13 c 0.5523,0 1,-0.4477 1,-1 0,-0.5523 -0.4477,-1 -1,-1 -0.5523,0 -1,0.4477 -1,1 0,0.5523 0.4477,1 1,1 z"
     fill="#0F1729"
     id="path3"
     style="fill:#ffffff" />
  <path
     d="m 16,10 c 0,0.5523 -0.4477,1 -1,1 -0.5523,0 -1,-0.4477 -1,-1 0,-0.55229 0.4477,-1 1,-1 0.5523,0 1,0.44771 1,1 z"
     fill="#0F1729"
     id="path4"
     style="fill:#ffffff" />
  <path
     d="m 19,11 c 0.5523,0 1,-0.4477 1,-1 0,-0.55229 -0.4477,-1 -1,-1 -0.5523,0 -1,0.44771 -1,1 0,0.5523 0.4477,1 1,1 z"
     fill="#0F1729"
     id="path5"
     style="fill:#ffffff" />
  <path
     fill-rule="evenodd"
     clip-rule="evenodd"
     d="M 12,3 C 10.1879,3 7.96237,3.25817 6.21782,3.5093 3.94305,3.83676 2.09096,5.51696 1.60993,7.7883 1.34074,9.05935 1.07694,10.5622 1.01649,11.8204 c -0.043344,0.9021 -0.138509,2.1627 -0.239335,3.3719 -0.104899,1.2581 0.314325,2.5541 1.083635,3.4758 0.78504,0.9406 2.02836,1.5746 3.46286,1.1732 0.91849,-0.2571 1.65243,-0.9026 2.19685,-1.5387 0.55651,-0.6501 0.99942,-1.3902 1.31485,-1.9923 0.24286,-0.4636 0.67398,-0.7248 1.08004,-0.7248 h 4.16921 c 0.406,0 0.8372,0.2612 1.08,0.7248 0.3155,0.6021 0.7584,1.3422 1.3149,1.9923 0.5444,0.6361 1.2783,1.2816 2.1968,1.5387 1.4345,0.4014 2.6778,-0.2326 3.4629,-1.1732 0.7693,-0.9217 1.1885,-2.2177 1.0836,-3.4758 C 23.122,13.9831 23.0268,12.7225 22.9835,11.8204 22.923,10.5622 22.6592,9.05935 22.39,7.7883 21.909,5.51696 20.0569,3.83676 17.7821,3.5093 16.0376,3.25817 13.8121,3 12,3 Z M 6.50279,5.48889 C 8.22744,5.24063 10.3368,5 12,5 c 1.6632,0 3.7725,0.24063 5.4972,0.4889 1.4678,0.21129 2.6339,1.28599 2.9362,2.71377 0.2633,1.24298 0.4998,2.61963 0.5524,3.71373 0.0451,0.9396 0.1429,2.2299 0.2439,3.4421 0.0615,0.7371 -0.1955,1.5123 -0.626,2.0281 -0.4148,0.497 -0.8948,0.6668 -1.3884,0.5287 -0.3656,-0.1024 -0.7826,-0.4063 -1.2164,-0.9132 -0.4218,-0.4927 -0.7845,-1.089 -1.0627,-1.6199 -0.5319,-1.0155 -1.588,-1.7967 -2.8516,-1.7967 H 9.91539 c -1.26361,0 -2.31968,0.7812 -2.85165,1.7967 C 6.78558,15.9131 6.42285,16.5094 6.00109,17.0021 5.56723,17.509 5.15027,17.8129 4.78463,17.9153 4.29109,18.0534 3.81102,17.8836 3.39625,17.3866 2.96576,16.8708 2.70878,16.0956 2.77024,15.3585 2.87131,14.1463 2.96904,12.856 3.01418,11.9164 3.06675,10.8223 3.30329,9.44565 3.56653,8.20267 3.86891,6.77489 5.03497,5.70019 6.50279,5.48889 Z"
     fill="#0F1729"
     id="path6"
     style="fill:#ffffff" />
</svg>

<?xml version="1.0" encoding="utf-8"?><!-- Uploaded to: SVG Repo, www.svgrepo.com, Generator: SVG Repo Mixer Tools -->
<svg width="800px" height="800px" viewBox="0 0 24 24" fill="none" xmlns="http://www.w3.org/2000/svg">
<path d="M7.99999 8.5C7.99999 7.94772 7.55227 7.5 6.99999 7.5C6.4477 7.5 5.99999 7.94772 5.99999 8.5V9H5.49999C4.9477 9 4.49999 9.44771 4.49999 10C4.49999 10.5523 4.9477 11 5.49999 11H5.99999V11.5C5.99999 12.0523 6.4477 12.5 6.99999 12.5C7.55227 12.5 7.99999 12.0523 7.99999 11.5V11H8.49999C9.05227 11 9.49999 10.5523 9.49999 10C9.49999 9.44771 9.05227 9 8.49999 9H7.99999V8.5Z" fill="#0F1729"/>
<path d="M18 8C18 8.55229 17.5523 9 17 9C16.4477 9 16 8.55229 16 8C16 7.44772 16.4477 7 17 7C17.5523 7 18 7.44772 18 8Z" fill="#0F1729"/>
<path d="M17 13C17.5523 13 18 12.5523 18 12C18 11.4477 17.5523 11 17 11C16.4477 11 16 11.4477 16 12C16 12.5523 16.4477 13 17 13Z" fill="#0F1729"/>
<path d="M16 10C16 10.5523 15.5523 11 15 11C14.4477 11 14 10.5523 14 10C14 9.44771 14.4477 9 15 9C15.5523 9 16 9.44771 16 10Z" fill="#0F1729"/>
<path d="M19 11C19.5523 11 20 10.5523 20 10C20 9.44771 19.5523 9 19 9C18.4477 9 18 9.44771 18 10C18 10.5523 18.4477 11 19 11Z" fill="#0F1729"/>
<path fill-rule="evenodd" clip-rule="evenodd" d="M12 3C10.1879 3 7.96237 3.25817 6.21782 3.5093C3.94305 3.83676 2.09096 5.51696 1.60993 7.7883C1.34074 9.05935 1.07694 10.5622 1.01649 11.8204C0.973146 12.7225 0.877981 13.9831 0.777155 15.1923C0.672256 16.4504 1.09148 17.7464 1.86079 18.6681C2.64583 19.6087 3.88915 20.2427 5.32365 19.8413C6.24214 19.5842 6.97608 18.9387 7.5205 18.3026C8.07701 17.6525 8.51992 16.9124 8.83535 16.3103C9.07821 15.8467 9.50933 15.5855 9.91539 15.5855H14.0846C14.4906 15.5855 14.9218 15.8467 15.1646 16.3103C15.4801 16.9124 15.923 17.6525 16.4795 18.3026C17.0239 18.9387 17.7578 19.5842 18.6763 19.8413C20.1108 20.2427 21.3541 19.6087 22.1392 18.6681C22.9085 17.7464 23.3277 16.4504 23.2228 15.1923C23.122 13.9831 23.0268 12.7225 22.9835 11.8204C22.923 10.5622 22.6592 9.05935 22.39 7.7883C21.909 5.51696 20.0569 3.83676 17.7821 3.5093C16.0376 3.25817 13.8121 3 12 3ZM6.50279 5.48889C8.22744 5.24063 10.3368 5 12 5C13.6632 5 15.7725 5.24063 17.4972 5.4889C18.965 5.70019 20.1311 6.77489 20.4334 8.20267C20.6967 9.44565 20.9332 10.8223 20.9858 11.9164C21.0309 12.856 21.1287 14.1463 21.2297 15.3585C21.2912 16.0956 21.0342 16.8708 20.6037 17.3866C20.1889 17.8836 19.7089 18.0534 19.2153 17.9153C18.8497 17.8129 18.4327 17.509 17.9989 17.0021C17.5771 16.5094 17.2144 15.9131 16.9362 15.3822C16.4043 14.3667 15.3482 13.5855 14.0846 13.5855H9.91539C8.65178 13.5855 7.59571 14.3667 7.06374 15.3822C6.78558 15.9131 6.42285 16.5094 6.00109 17.0021C5.56723 17.509 5.15027 17.8129 4.78463 17.9153C4.29109 18.0534 3.81102 17.8836 3.39625 17.3866C2.96576 16.8708 2.70878 16.0956 2.77024 15.3585C2.87131 14.1463 2.96904 12.856 3.01418 11.9164C3.06675 10.8223 3.30329 9.44565 3.56653 8.20267C3.86891 6.77489 5.03497 5.70019 6.50279 5.48889Z" fill="#0F1729"/>
</svg>
